X: 14102
T: Friendly Cepholophore, The
R: reel
M: 4/4
K: Aminor
|:Aeee e>dce|d>cBc dfec|Aeee e>dce|1 d>cBc de/d/cB:|2 d>cBc dcBc/B/||
|:A2Bc d3e|edce efec|A2Bc d3e|1 edcB A3G:|2 edcB A4||

